X:1
T:The Poor Man
M:2/4
L:1/8
K:G
 z2 B2| e2 df| e2 EE| GG AF| E3 E| GF GA| BB BG| AG AB| d3 E| GF GA|\
 cB BG| AG AB| d3 d| Be dg| e2 BA| G2 EE| E4|
